packages/sights/assets/overlays/Cce1KCd3.svg

<svg width="500" height="375" viewBox="0 0 500 375" fill="none" xmlns="http://www.w3.org/2000/svg">
<path d="M468.4 74.4813C433.55 22.4813 411.54 22.2013 411.54 22.2013C332.89 4.79136 187.74 14.9413 187.74 14.9413L99.9994 26.0313L95.0995 32.6113L101.22 42.7013L43.1294 92.2313H40.0695C4.90946 113.321 9.18946 120.051 9.18946 120.051L11.6395 128.151L17.3694 156.351L9.02946 176.531V187.771C9.02946 187.771 19.4394 226.061 21.4994 229.481C21.4994 229.481 46.0295 290.931 70.3395 314.321C81.6089 320.696 93.4138 326.073 105.62 330.391C105.62 330.391 129.01 341.861 154.23 345.981L195.51 339.561L204.68 330.851C204.68 330.851 226.23 225.851 312.45 211.161C312.45 211.161 337.67 208.631 337.67 241.651L335.62 256.101L327.359 266.871C327.359 266.871 460.62 185.021 469.78 174.241C469.78 174.241 479.18 139.161 490.19 127.461" stroke="white" stroke-miterlimit="10"/>
<path d="M95.1006 32.6111C95.1006 32.6111 100.91 20.3811 210.67 40.2511L241.67 50.1911C241.67 50.1911 171.97 128.911 170.99 137.481C170.99 137.481 92.3506 142.381 54.4406 112.721C54.4406 112.721 30.5806 97.7211 40.0706 92.2411" stroke="white" stroke-miterlimit="10"/>
<path d="M170.99 33.752C170.99 33.752 195.08 36.892 211.82 51.332L227.41 65.332" stroke="white" stroke-miterlimit="10"/>
<path d="M101.221 42.7007C101.221 42.7007 104.051 38.2607 117.351 38.2607C117.351 38.2607 186.351 42.7007 209.621 49.5407" stroke="white" stroke-miterlimit="10"/>
<path d="M303.58 311.945C321.453 283.825 324.293 253.625 309.923 244.491C295.553 235.358 269.415 250.749 251.542 278.869C233.669 306.989 230.829 337.189 245.199 346.323C259.569 355.456 285.707 340.065 303.58 311.945Z" stroke="white" stroke-miterlimit="10"/>
<path d="M291.001 217.071L314.001 228.761C332.921 240.761 329.821 279.551 307.071 315.341C284.321 351.131 250.541 370.341 231.621 358.341C231.051 357.981 230.511 357.601 229.981 357.201L204.711 330.841" stroke="white" stroke-miterlimit="10"/>
<path d="M14.6191 207.612L78.3391 299.822C78.3391 299.822 131.229 341.402 198.799 311.132C198.799 311.132 223.869 223.692 303.659 200.452C303.659 200.452 341.569 190.982 343.409 235.312C343.409 235.312 461.479 175.712 473.679 161.642" stroke="white" stroke-miterlimit="10"/>
<path d="M170.991 137.471L161.141 143.741L136.381 167.131" stroke="white" stroke-miterlimit="10"/>
<path d="M50.6206 161.642C50.6206 161.642 55.8906 155.642 71.4906 159.332C71.4906 159.332 108.251 169.882 159.611 167.132C159.611 167.132 190.031 161.582 199.211 162.862L207.461 167.592V172.713C207.461 172.713 185.221 210.713 180.171 215.713C180.171 215.713 145.551 229.243 102.171 215.713C102.171 215.713 88.1706 202.642 86.8106 201.952C85.4506 201.262 62.7306 188.652 62.2706 187.952C61.8106 187.252 50.3906 165.772 50.6206 161.642Z" stroke="white" stroke-miterlimit="10"/>
<path d="M102.21 215.741C102.21 215.741 102.44 228.121 105.42 233.861C105.42 233.861 84.33 254.951 77.42 257.701C77.42 257.701 69.62 263.891 56.78 252.201C56.78 252.201 21.78 217.591 9 179.981" stroke="white" stroke-miterlimit="10"/>
<path d="M50.6191 161.641C50.6191 161.641 13.9391 138.641 11.6191 128.151" stroke="white" stroke-miterlimit="10"/>
<path d="M17.3691 156.352L22.6191 167.132C22.6191 167.132 28.9791 210.212 89.6891 248.602" stroke="white" stroke-miterlimit="10"/>
<path d="M468.169 78.3918C457.629 58.6718 434.169 38.2618 434.169 38.2618C404.169 13.6518 305.169 33.7518 305.169 33.7518C305.169 33.7518 278.999 105.911 277.619 119.661C277.619 119.661 464.779 89.1418 467.019 89.6618L467.919 89.5318" stroke="white" stroke-miterlimit="10"/>
<path d="M381.5 26.0215L391.82 53.1715C391.82 53.1715 400.82 91.5115 401.24 99.1715L407.64 103.381L415.89 124.481L414.98 130.671C414.98 130.671 414.06 165.751 406.03 183.671L406.49 188.031L410.73 200.111L406.99 217.111" stroke="white" stroke-miterlimit="10"/>
<path d="M490.189 91.0015C485.029 94.3315 468.189 90.2015 468.189 90.2015C466.129 85.5015 469.189 70.7115 469.189 70.7115C471.604 69.6436 474.229 69.1343 476.869 69.2215C476.869 69.2215 489.019 73.3515 490.169 74.9515" stroke="white" stroke-miterlimit="10"/>
<path d="M447.061 190.981L448.531 194.031L471.161 201.221C471.161 201.221 482.011 198.771 490.161 177.981" stroke="white" stroke-miterlimit="10"/>
</svg>

<svg width="500" height="375" fill="none" xmlns="http://www.w3.org/2000/svg"><path d="M468.4 74.481c-34.85-52-56.86-52.28-56.86-52.28-78.65-17.41-223.8-7.26-223.8-7.26L100 26.031l-4.9 6.58 6.12 10.09-58.09 49.53h-3.06c-35.16 21.09-30.88 27.82-30.88 27.82l2.45 8.1 5.73 28.2-8.34 20.18v11.24s10.41 38.29 12.47 41.71c0 0 24.53 61.45 48.84 84.84a222.072 222.072 0 0 0 35.28 16.07s23.39 11.47 48.61 15.59l41.28-6.42 9.17-8.71s21.55-105 107.77-119.69c0 0 25.22-2.53 25.22 30.49l-2.05 14.45-8.261 10.77s133.261-81.85 142.421-92.63c0 0 9.4-35.08 20.41-46.78" stroke="#fff" stroke-miterlimit="10"/><path d="M95.1 32.611s5.81-12.23 115.57 7.64l31 9.94s-69.7 78.72-70.68 87.29c0 0-78.64 4.9-116.55-24.76 0 0-23.86-15-14.37-20.48" stroke="#fff" stroke-miterlimit="10"/><path d="M170.99 33.752s24.09 3.14 40.83 17.58l15.59 14" stroke="#fff" stroke-miterlimit="10"/><path d="M101.221 42.7s2.83-4.44 16.13-4.44c0 0 69 4.44 92.27 11.28M303.58 311.945c17.873-28.12 20.713-58.32 6.343-67.454-14.37-9.133-40.508 6.258-58.381 34.378-17.873 28.12-20.713 58.32-6.343 67.454 14.37 9.133 40.508-6.258 58.381-34.378Z" stroke="#fff" stroke-miterlimit="10"/><path d="m291.001 217.071 23 11.69c18.92 12 15.82 50.79-6.93 86.58s-56.53 55-75.45 43c-.57-.36-1.11-.74-1.64-1.14l-25.27-26.36" stroke="#fff" stroke-miterlimit="10"/><path d="m14.62 207.612 63.72 92.21s52.889 41.58 120.459 11.31c0 0 25.07-87.44 104.86-110.68 0 0 37.91-9.47 39.75 34.86 0 0 118.07-59.6 130.27-73.67M170.991 137.471l-9.85 6.27-24.76 23.39" stroke="#fff" stroke-miterlimit="10"/><path d="M50.62 161.642s5.27-6 20.87-2.31c0 0 36.761 10.55 88.121 7.8 0 0 30.42-5.55 39.6-4.27l8.25 4.73v5.121s-22.24 38-27.29 43c0 0-34.62 13.53-78 0 0 0-14-13.071-15.36-13.761-1.36-.69-24.08-13.3-24.54-14-.46-.7-11.88-22.18-11.65-26.31ZM102.21 215.741s.23 12.38 3.21 18.12c0 0-21.09 21.09-28 23.84 0 0-7.8 6.19-20.64-5.5 0 0-35-34.61-47.78-72.22M50.62 161.641s-36.68-23-39-33.49" stroke="#fff" stroke-miterlimit="10"/><path d="m17.37 156.352 5.25 10.78s6.36 43.08 67.07 81.47M468.169 78.392c-10.54-19.72-34-40.13-34-40.13-30-24.61-129-4.51-129-4.51s-26.17 72.159-27.55 85.909c0 0 187.16-30.52 189.4-30l.9-.13" stroke="#fff" stroke-miterlimit="10"/><path d="m381.5 26.021 10.32 27.15s9 38.34 9.42 46l6.4 4.21 8.25 21.1-.91 6.19s-.92 35.08-8.95 53l.46 4.36 4.24 12.08-3.74 17M490.189 91.001c-5.16 3.33-22-.8-22-.8-2.06-4.7 1-19.49 1-19.49a17.556 17.556 0 0 1 7.68-1.49s12.15 4.13 13.3 5.73M447.061 190.981l1.47 3.05 22.63 7.19s10.85-2.45 19-23.24" stroke="#fff" stroke-miterlimit="10"/></svg>
